icons/doctor_fill.svg

<svg width="48" height="48" viewBox="0 0 48 48" fill="none" xmlns="http://www.w3.org/2000/svg">
<path fill-rule="evenodd" clip-rule="evenodd" d="M14.4326 33.4416C13.5732 33.9692 13 34.9177 13 36C13 37.6569 14.3431 39 16 39C17.6569 39 19 37.6569 19 36C19 34.476 17.8636 33.2174 16.3919 33.0254C16.3591 32.9079 16.3249 32.7725 16.2901 32.6206C16.1703 32.0972 16.056 31.4332 15.9709 30.7512C15.8856 30.0679 15.8327 29.3904 15.8292 28.8375C15.8279 28.6348 15.8334 28.4582 15.8446 28.3101C16.2293 28.1997 16.6151 28.1003 17 28.0126C17.4413 27.9121 17.7025 28.433 17.9141 28.8551C17.9436 28.9139 17.9721 28.9707 18 29.0237H22.0639C22.9797 29.0235 23.4324 29.0236 23.8903 29.0237C24.3376 29.0238 24.7906 29.0239 25.6851 29.0237H29.7493C29.9775 28.5902 30.4972 27.8981 31 28.0126C31.5363 28.1348 32.0745 28.2798 32.6089 28.4456L32.6056 28.4472C32.6044 28.4449 32.6045 28.4453 32.6057 28.4487C32.6104 28.4627 32.6324 28.5281 32.6542 28.6699C32.6791 28.8313 32.6964 29.0411 32.7035 29.2937C32.7177 29.798 32.6894 30.411 32.6297 31.0287C32.5699 31.6456 32.4811 32.2429 32.3811 32.7144C32.359 32.8188 32.3369 32.9141 32.3152 33H31C30.6212 33 30.275 33.214 30.1056 33.5528L29.1056 35.5528C29.0361 35.6916 29 35.8448 29 36V38C29 38.5523 29.4477 39 30 39H32V37H31V36.2361L31.618 35H34.382L35 36.2361V37H34V39H36C36.5523 39 37 38.5523 37 38V36C37 35.8448 36.9639 35.6916 36.8944 35.5528L35.8944 33.5528C35.725 33.214 35.3788 33 35 33H34.3643C34.4711 32.4673 34.56 31.8448 34.6203 31.2213C34.6856 30.5473 34.7198 29.8478 34.7027 29.2376L34.7019 29.2101C38.6895 30.8949 42 33.6661 42 36.5699V42H6V36.5699C6 33.5376 9.60993 30.6499 13.831 28.993C13.8424 29.6146 13.9013 30.3182 13.9862 30.9988C14.0779 31.7335 14.2029 32.4653 14.3406 33.0669C14.3701 33.1958 14.4008 33.3213 14.4326 33.4416ZM16 37.0147C16.5384 37.0147 17 36.5742 17 36C17 35.4258 16.5384 34.9853 16 34.9853C15.4616 34.9853 15 35.4258 15 36C15 36.5742 15.4616 37.0147 16 37.0147Z" fill="black"/>
<path fill-rule="evenodd" clip-rule="evenodd" d="M24 24C28.4183 24 32 20.4183 32 16C32 11.5817 28.4183 8 24 8C19.5817 8 16 11.5817 16 16C16 20.4183 19.5817 24 24 24ZM24 26C29.5228 26 34 21.5228 34 16C34 10.4772 29.5228 6 24 6C18.4772 6 14 10.4772 14 16C14 21.5228 18.4772 26 24 26Z" fill="black"/>
</svg>

<svg
  xmlns="http://www.w3.org/2000/svg"
  width="24"
  height="24"
  viewBox="0 0 24 24"
  fill="none"
  stroke="currentColor"
  stroke-width="2"
  stroke-linecap="round"
  stroke-linejoin="round"
>
  <path
    fill-rule="evenodd"
    d="M14.433 33.442a3 3 0 1 0 1.96-.416 9 9 0 0 1-.103-.405 20 20 0 0 1-.32-1.87 17 17 0 0 1-.14-1.914 7 7 0 0 1 .015-.527q.577-.166 1.155-.297c.441-.1.703.42.914.842l.086.169h11.749c.229-.434.748-1.126 1.251-1.011.536.122 1.075.267 1.609.433l-.003.001q-.003-.003 0 .002c.004.014.026.08.048.22q.038.244.05.625c.014.504-.015 1.117-.074 1.735-.06.617-.149 1.214-.249 1.685q-.033.157-.066.286H31a1 1 0 0 0-.894.553l-1 2A1 1 0 0 0 29 36v2a1 1 0 0 0 1 1h2v-2h-1v-.764L31.618 35h2.764L35 36.236V37h-1v2h2a1 1 0 0 0 1-1v-2a1 1 0 0 0-.106-.447l-1-2A1 1 0 0 0 35 33h-.636c.107-.533.196-1.155.256-1.779.066-.674.1-1.373.083-1.983l-.001-.028C38.69 30.895 42 33.666 42 36.57V42H6v-5.43c0-3.032 3.61-5.92 7.831-7.577.011.622.07 1.325.155 2.006.092.735.217 1.466.355 2.068q.045.193.092.375M16 37.015c.538 0 1-.44 1-1.015 0-.574-.462-1.015-1-1.015s-1 .44-1 1.015c0 .574.462 1.015 1 1.015"
    clip-rule="evenodd"
  />
  <path
    fill-rule="evenodd"
    d="M24 24a8 8 0 1 0 0-16 8 8 0 0 0 0 16m0 2c5.523 0 10-4.477 10-10S29.523 6 24 6s-10 4.477-10 10 4.477 10 10 10"
    clip-rule="evenodd"
  />
</svg>
